X:1
T:Miss Caroline Campbell [2]
T:Miss Caroline Campbell [2]
T:William MacLeish
C:William MacLeish
L:1/8
M:4/4
K:Bb
V:1 treble 
V:1
 d | f<f f>b d2 B>d | e>c e/d/c/B/ A<c c>d | f<f f>b d2 B>d | e>c e/d/c/B/ F<B B>d | %5
 f<f f>b d2 B>d | e>c e/d/c/B/ A<c c>e | B>df>b g2 e>g | f>dc>f d<B B || d/e/ | f<Bb>B f2 d>g | %11
 f>dd>B A<c cd/e/ | f<Bb>B a<B g>B | F<B A>c d<B B | d/e/ | f<Bb>B f2 d>g | f>dd>B A<c cd/e/ | %17
 G<eF<d E<cD<B | G>g f>e d<B B || %19

